X:1
T: Eugene Stratton
C:J. Scott Skinner
R:Reel
Q: 232
K:Bb
M:4/4
L:1/8
|:F2|B2 FE DF Bd|=ef gf ^cd AB|c1/2c1/2c GF EG cB|Ac f=e gf _ec|
B1/2B1/2B FE DF Bd|=ef ga bf dB|ge BG Eb ag|fd ec B2:|
|:F2|bB AB gB AB|=ef ga bf dB|EG ce DF Bd|=Bc d=e f^f ga|
bB AB gB AB|=ef ga bf dB|ge BG Eb ag|fd ec B2:|
